%
O0000(UNBENGABLE_NEGATIVE)
(DATE=DD-MM-YY - 09-04-22 TIME=HH:MM - 15:58)
(MCAM FILE - D:\西安交通大学\2021-2022第二学期\数控技术\数控技术第一次实验\切削代码和仿真\UNBENGABLE_NEGATIVE.MCAM)
(NC FILE - C:\USERS\CHAIRMANYANG1966\DOCUMENTS\MY MASTERCAM 2021\MASTERCAM\MILL\NC\UNBENGABLE_NEGATIVE.NC)
(MATERIAL - ALUMINUM MM - 2024)
( T1 | 2 平底刀 | H1 )
N110 G0 G17 G40 G49 G80 G90
N130 G0 G90 G54 X.602 Y-.318 S1600 M3
N140 M8
N150 Z10.
N160 G1 Z1. F200.
N170 G3 X-.081 Y-.198 Z.963 I-.683 J-1.88
N180 X-2.081 Y-2.198 Z.799 I0. J-2.
N190 X-.081 Y-4.198 Z.634 I2. J0.
N200 X1.919 Y-2.198 Z.469 I0. J2.
N210 X.602 Y-.318 Z.341 I-2. J0.
N220 X-.081 Y-.198 Z.305 I-.683 J-1.88
N230 X-2.081 Y-2.198 Z.14 I0. J-2.
N240 X-.081 Y-4.198 Z-.024 I2. J0.
N250 X1.919 Y-2.198 Z-.189 I0. J2.
N260 X.602 Y-.318 Z-.317 I-2. J0.
N270 X-.081 Y-.198 Z-.354 I-.683 J-1.88
N280 X-2.081 Y-2.198 Z-.518 I0. J-2.
N290 X-.081 Y-4.198 Z-.683 I2. J0.
N300 X1.919 Y-2.198 Z-.848 I0. J2.
N310 X.602 Y-.318 Z-.976 I-2. J0.
N320 X-.081 Y-.198 Z-1.012 I-.683 J-1.88
N330 X-2.081 Y-2.198 Z-1.177 I0. J-2.
N340 X-.081 Y-4.198 Z-1.341 I2. J0.
N350 X1.919 Y-2.198 Z-1.506 I0. J2.
N360 X.602 Y-.318 Z-1.634 I-2. J0.
N370 X-.081 Y-.198 Z-1.671 I-.683 J-1.88
N380 X-2.081 Y-2.198 Z-1.835 I0. J-2.
N390 X-.083 Y-4.198 Z-2. I2. J0.
N400 G1 X-.084 Y-5.198 F300.
N410 G3 X.05 Y-5.196 I-1.006 J64.823
N420 X18.927 Y-3.064 I-15.608 J222.809
N430 G2 X19.159 Y-3.046 I.232 J-1.482
N440 X20.659 Y-4.546 I0. J-1.5
N450 G1 Y-4.549
N460 G2 X10.985 Y-20.733 I-18.445 J.042
N470 X-.104 Y-23.927 I-11.292 J18.355
N480 G1 X-.109 Y-28.021
N490 X.041
N500 G3 X7.323 Y-27.038 I-.075 J28.017
N510 G1 X-7.391
N520 G2 X-10.345 Y-26.055 I7.357 J27.034
N530 G1 X10.277
N540 G3 X12.479 Y-25.072 I-10.311 J26.051
N550 G1 X-12.547
N560 G2 X-14.348 Y-24.089 I12.513 J25.068
N570 G1 X14.28
N580 X15.818 Y-23.106
N590 X5.59
N600 G3 X8.328 Y-22.123 I-5.897 J20.728
N610 G1 X17.163
N620 G3 X18.358 Y-21.14 I-17.197 J22.119
N630 G1 X10.296
N640 G3 X10.985 Y-20.733 I-10.603 J18.762
N650 X11.976 Y-20.157 I-8.771 J16.226
N660 G1 X19.43
N670 G3 X20.399 Y-19.174 I-19.464 J20.153
N680 G1 X13.399
N690 G3 X14.582 Y-18.19 I-11.185 J14.667
N700 G1 X21.279
N710 G3 X22.08 Y-17.207 I-21.313 J18.186
N720 G1 X15.59
N730 G3 X16.459 Y-16.224 I-13.376 J12.7
N740 G1 X22.811
N750 G3 X23.478 Y-15.241 I-22.845 J16.22
N760 G1 X17.214
N770 G3 X17.871 Y-14.258 I-15. J10.734
N780 G1 X24.086
N790 G3 X24.641 Y-13.275 I-24.12 J14.254
N800 G1 X18.442
N810 G3 X18.936 Y-12.292 I-16.228 J8.768
N820 G1 X25.145
N830 G3 X25.601 Y-11.309 I-25.179 J12.288
N840 G1 X19.359
N850 G3 X19.717 Y-10.326 I-17.145 J6.802
N860 G1 X26.013
N870 G3 X26.381 Y-9.343 I-26.047 J10.322
N880 G1 X20.014
N890 G3 X20.252 Y-8.36 I-17.8 J4.836
N900 G1 X26.709
N910 G3 X26.996 Y-7.377 I-26.743 J8.356
N920 G1 X20.434
N930 G3 X20.562 Y-6.394 I-18.22 J2.87
N940 G1 X27.245
N950 G3 X27.457 Y-5.411 I-27.279 J6.39
N960 G1 X20.637
N970 G3 X20.659 Y-4.549 I-18.423 J.904
N980 G1 Y-4.546
N990 G3 X20.654 Y-4.428 I-1.5 J0.
N1000 G1 X27.632
N1010 G3 X27.772 Y-3.444 I-27.666 J4.424
N1020 G1 X20.177
N1030 G2 X20.659 Y-4.546 I-1.018 J-1.102
N1040 G1 Y-4.549
N1050 G2 X10.985 Y-20.733 I-18.445 J.042
N1060 X-.307 Y-23.928 I-11.292 J18.355
N1070 X-6.204 Y-23.106 I0. J21.55
N1080 G1 X-15.886
N1090 G2 X-17.231 Y-22.123 I15.852 J23.102
N1100 G1 X-8.942
N1110 G2 X-10.91 Y-21.14 I8.635 J19.745
N1120 G1 X-18.426
N1130 G2 X-19.498 Y-20.157 I18.392 J21.136
N1140 G1 X-12.703
N1150 G2 X-14.199 Y-19.174 I8.927 J15.208
N1160 G1 X-20.467
N1170 G2 X-21.346 Y-18.19 I20.433 J19.17
N1180 G1 X-15.422
N1190 G2 X-16.453 Y-17.207 I11.646 J13.241
N1200 G1 X-22.148
N1210 G2 X-22.878 Y-16.224 I22.114 J17.203
N1220 G1 X-17.335
N1230 G2 X-18.095 Y-15.241 I13.559 J11.275
N1240 G1 X-23.546
N1250 G2 X-24.154 Y-14.258 I23.512 J15.237
N1260 G1 X-18.753
N1270 G2 X-19.321 Y-13.275 I14.977 J9.309
N1280 G1 X-24.709
N1290 G2 X-25.213 Y-12.292 I24.675 J13.271
N1300 G1 X-19.809
N1310 G2 X-20.224 Y-11.309 I16.033 J7.343
N1320 G1 X-25.669
N1330 G2 X-26.081 Y-10.326 I25.635 J11.305
N1340 G1 X-20.571
N1350 G2 X-20.854 Y-9.343 I16.795 J5.377
N1360 G1 X-26.449
N1370 G2 X-26.776 Y-8.36 I26.415 J9.339
N1380 G1 X-21.078
N1390 G2 X-21.243 Y-7.377 I17.302 J3.411
N1400 G1 X-27.064
N1410 G2 X-27.313 Y-6.394 I27.03 J7.373
N1420 G1 X-21.351
N1430 G2 X-21.405 Y-5.411 I17.575 J1.445
N1440 G1 X-27.525
N1450 G2 X-27.7 Y-4.428 I27.491 J5.407
N1460 G1 X-21.403
N1470 G2 X-21.379 Y-3.899 I17.627 J-.521
N1480 X-21.28 Y-3.444 I1.497 J-.089
N1490 G1 X-27.839
N1500 X-27.943 Y-2.461
N1510 X27.876
N1520 G3 X27.945 Y-1.478 I-27.91 J2.457
N1530 G1 X-28.013
N1540 X-28.047 Y-.495
N1550 X-13.731
N1560 G2 X-14.399 Y.388 I.778 J1.282
N1570 X-14.425 Y.488 I9.619 J2.653
N1580 G1 X-28.047
N1590 G2 X-28.013 Y1.471 I28.013 J-.492
N1600 G1 X-14.633
N1610 G2 X-14.74 Y2.454 I9.853 J1.57
N1620 G1 X-27.943
N1630 G2 X-27.839 Y3.437 I27.909 J-2.458
N1640 G1 X-14.75
N1650 G2 X-14.662 Y4.42 I9.97 J-.396
N1660 G1 X-27.7
N1670 G2 X-27.525 Y5.403 I27.666 J-4.424
N1680 G1 X-14.474
N1690 G2 X-14.18 Y6.386 I9.694 J-2.362
N1700 G1 X-27.313
N1710 G2 X-27.064 Y7.369 I27.279 J-6.39
N1720 G1 X-13.77
N1730 G2 X-13.226 Y8.352 I8.99 J-4.328
N1740 G1 X-26.776
N1750 G2 X-26.449 Y9.335 I26.742 J-8.356
N1760 G1 X-12.522
N1770 G2 X-11.606 Y10.318 I7.742 J-6.294
N1780 G1 X-26.081
N1790 G2 X-25.669 Y11.302 I26.047 J-10.322
N1800 G1 X-10.376
N1810 G3 X-14.758 Y3.041 I5.596 J-8.261
N1820 X-14.399 Y.388 I9.978 J0.
N1830 X-12.953 Y-.713 I1.446 J.399
N1840 X-12.174 Y-.495 I0. J1.5
N1850 G1 X-5.577
N1860 G2 X-5.854 Y.006 I1.15 J.964
N1870 G3 X-6.042 Y.488 I-4.244 J-1.375
N1880 G1 X-11.216
N1890 G3 X-10.376 Y1.471 I-50.791 J44.228
N1900 G1 X-6.658
N1910 G3 X-7.799 Y2.454 I-3.44 J-2.84
N1920 G1 X-9.568
N1930 X-6.258 Y.902
N1940 G2 X-5.854 Y.006 I-3.84 J-2.271
N1950 G3 X-4.427 Y-1.031 I1.427 J.463
N1960 X-3.278 Y-.495 I0. J1.5
N1970 G1 X3.193
N1980 G2 X3.023 Y-.179 I1.228 J.861
N1990 X2.789 Y.488 I9.57 J3.735
N2000 G1 X-2.813
N2010 G3 X-2.536 Y1.471 I-8.523 J2.935
N2020 G1 X2.534
N2030 G2 X2.38 Y2.454 I10.059 J2.085
N2040 G1 X-2.374
N2050 G3 X-2.322 Y3.423 I-8.962 J.969
N2060 G1 Y3.437
N2070 X2.321
N2080 G2 X2.32 Y3.556 I10.272 J.119
N2090 X2.357 Y4.42 I10.273 J0.
N2100 G1 X-2.377
N2110 G3 X-2.542 Y5.403 I-8.959 J-.997
N2120 G1 X2.488
N2130 G2 X2.718 Y6.386 I10.105 J-1.847
N2140 G1 X-2.823
N2150 G3 X-3.232 Y7.369 I-8.513 J-2.963
N2160 G1 X3.055
N2170 G2 X3.509 Y8.352 I9.538 J-3.813
N2180 G1 X-3.789
N2190 G3 X-4.532 Y9.335 I-7.547 J-4.929
N2200 G1 X4.101
N2210 G2 X4.244 Y9.54 I8.492 J-5.779
N2220 X5.017 Y10.318 I3.967 J-3.169
N2230 G1 X-5.53
N2240 G3 X-6.956 Y11.302 I-5.806 J-6.895
N2250 G1 X6.997
N2260 G3 X4.244 Y9.54 I1.214 J-4.931
N2270 X2.321 Y3.556 I8.349 J-5.984
N2280 X3.023 Y-.179 I10.272 J0.
N2290 X4.421 Y-1.134 I1.398 J.545
N2300 X5.649 Y-.495 I0. J1.5
N2310 G1 X11.626
N2320 G2 X11.321 Y-.027 I1.082 J1.039
N2330 G3 X11.079 Y.488 I-5.374 J-2.211
N2340 G1 X5.989
N2350 G2 X6.451 Y1.471 I3.472 J-1.032
N2360 G1 X10.42
N2370 G3 X9.375 Y2.454 I-4.473 J-3.709
N2380 G1 X7.429
N2390 X10.862 Y.862
N2400 G2 X11.321 Y-.027 I-4.915 J-3.1
N2410 G3 X12.708 Y-.956 I1.387 J.571
N2420 X13.789 Y-.495 I0. J1.5
N2430 G1 X27.979
N2440 G3 X27.983 Y-.004 I-28.013 J.491
N2450 X27.979 Y.488 I-28.017 J0.
N2460 G1 X14.258
N2470 G3 X14.478 Y1.471 I-9.301 J2.6
N2480 G1 X18.111
N2490 G2 X16.082 Y2.454 I1.748 J6.191
N2500 G1 X14.594
N2510 G3 X14.615 Y3.088 I-9.637 J.634
N2520 X14.608 Y3.437 I-9.658 J0.
N2530 G1 X15.007
N2540 G3 X19.859 Y1.228 I4.852 J4.225
N2550 X21.607 Y1.471 I0. J6.434
N2560 G1 X27.945
N2570 G3 X27.876 Y2.454 I-27.979 J-1.475
N2580 G1 X23.635
N2590 G3 X24.71 Y3.437 I-3.776 J5.208
N2600 G1 X27.772
N2610 G3 X27.632 Y4.42 I-27.806 J-3.441
N2620 G1 X25.619
N2630 G3 X26.423 Y5.403 I-8.964 J8.147
N2640 G1 X27.457
N2650 G3 X27.245 Y6.386 I-27.491 J-5.407
N2660 G1 X27.073
N2670 G2 X24.978 Y3.766 I-10.418 J6.181
N2680 X21.796 Y1.527 I-5.119 J3.896
N2690 G1 X16.396 Y-3.444
N2700 X-16.1
N2710 G3 X-11.107 Y-4.428 I15.01 J63.069
N2720 G1 X8.638
N2730 X9.978 Y1.947
N2740 G3 X8.544 Y2.96 I-4.031 J-4.185
N2750 X5.897 Y.1 I.917 J-3.504
N2760 G2 X4.421 Y-1.134 I-1.476 J.266
N2770 X3.023 Y-.179 I0. J1.5
N2780 X2.32 Y3.556 I9.57 J3.735
N2790 X4.244 Y9.54 I10.273 J0.
N2800 X8.211 Y11.448 I3.967 J-3.169
N2810 X11.686 Y10.073 I0. J-5.077
N2820 G1 X12.151 Y12.285
N2830 X-25.213
N2840 G2 X-24.709 Y13.268 I25.179 J-12.289
N2850 G1 X12.138
N2860 G2 X12.18 Y14.251 I17.61 J-.26
N2870 G1 X-24.154
N2880 G2 X-23.546 Y15.234 I24.12 J-14.255
N2890 G1 X12.277
N2900 G2 X12.431 Y16.217 I17.471 J-2.226
N2910 G1 X-22.878
N2920 G2 X-22.148 Y17.2 I22.844 J-16.221
N2930 G1 X12.642
N2940 G2 X12.914 Y18.183 I17.106 J-4.192
N2950 G1 X-21.346
N2960 G2 X-20.467 Y19.166 I21.312 J-18.187
N2970 G1 X13.248
N2980 G2 X13.649 Y20.149 I16.5 J-6.158
N2990 G1 X-19.498
N3000 G2 X-18.426 Y21.132 I19.464 J-20.153
N3010 G1 X14.122
N3020 G2 X14.674 Y22.115 I15.626 J-8.124
N3030 G1 X-17.231
N3040 G2 X-15.886 Y23.098 I17.197 J-22.119
N3050 G1 X15.313
N3060 G2 X15.477 Y23.328 I14.435 J-10.09
N3070 G3 X14.28 Y24.081 I-15.511 J-23.332
N3080 G1 X-14.348
N3090 G2 X-12.547 Y25.064 I14.314 J-24.085
N3100 G1 X12.479
N3110 G3 X10.277 Y26.047 I-12.513 J-25.068
N3120 G1 X-10.345
N3130 G2 X-7.391 Y27.031 I10.311 J-26.051
N3140 G1 X7.323
N3150 G3 X.041 Y28.014 I-7.357 J-27.035
N3160 G1 X-.109
N3170 X9.425 Y11.302
N3180 X12.219
N3190 G3 X12.343 Y10.318 I17.529 J1.706
N3200 G1 X11.405
N3210 G2 X12.333 Y9.335 I-3.194 J-3.947
N3220 G1 X12.523
N3230 X11.975 Y8.976
N3240 G3 X8.211 Y10.949 I-3.764 J-2.605
N3250 X4.642 Y9.238 I0. J-4.578
N3260 X2.82 Y3.556 I7.951 J-5.682
N3270 X2.838 Y2.976 I9.773 J0.
N3280 G1 X-9.549 Y-5.156
N3290 G2 X-19.599 Y-3.029 I8.459 J64.781
N3300 G3 X-19.882 Y-2.988 I-.283 J-.959
N3310 X-20.88 Y-3.929 I0. J-1.
N3320 X-20.91 Y-4.949 I17.104 J-1.02
N3330 X-19.522 Y-11.705 I17.134 J0.
N3340 G1 X-21.085 Y-12.73
N3350 X-22.707 Y-13.901
N3360 G3 X-23.537 Y-15.523 I1.171 J-1.622
N3370 X-23.158 Y-16.693 I2.001 J0.
N3380 X-.034 Y-28.521 I23.124 J16.689
N3390 X28.483 Y-.004 I0. J28.517
N3400 X27.335 Y8.007 I-28.517 J0.
N3410 G2 X24.604 Y4.101 I-10.68 J4.56
N3420 X19.859 Y1.729 I-4.745 J3.561
N3430 X15.231 Y3.949 I0. J5.933
N3440 X12.636 Y13.008 I14.517 J9.059
N3450 X16.191 Y23.449 I17.112 J0.
N3460 G3 X-.034 Y28.514 I-16.225 J-23.453
N3470 X-28.552 Y-.004 I0. J-28.518
N3480 X-23.158 Y-16.693 I28.518 J0.
N3490 X-21.536 Y-17.523 I1.622 J1.17
N3500 X-20.366 Y-17.144 I0. J2.
N3510 G1 X-18.744 Y-15.974
N3520 X-18.656 Y-13.445
N3530 G2 X-20.911 Y-4.949 I14.88 J8.496
N3540 X-20.88 Y-3.929 I17.135 J0.
N3550 X-19.882 Y-2.988 I.998 J-.059
N3560 X-19.599 Y-3.029 I0. J-1.
N3570 G3 X-18.306 Y-3.397 I18.509 J62.654
N3580 G1 X-17.962 Y6.489
N3590 X-16.122 Y5.705
N3600 G3 X-15.337 Y5.544 I.785 J1.839
N3610 X-13.498 Y6.76 I0. J2.
N3620 G2 X-9.285 Y11.379 I8.718 J-3.719
N3630 X-8.809 Y11.5 I.476 J-.879
N3640 X-8.473 Y11.441 I0. J-1.
N3650 X-2.822 Y3.423 I-2.863 J-8.018
N3660 X-3.508 Y.075 I-8.514 J0.
N3670 X-4.427 Y-.531 I-.919 J.394
N3680 X-5.379 Y.16 I0. J1.
N3690 G3 X-7.827 Y3.041 I-4.719 J-1.529
N3700 X-8.796 Y3.37 I-.969 J-1.263
N3710 X-9.701 Y3.088 I0. J-1.592
N3720 G2 X-12.208 Y.12 I-52.306 J41.628
N3730 X-12.953 Y-.213 I-.745 J.667
N3740 X-13.917 Y.521 I0. J1.
N3750 X-14.258 Y3.041 I9.137 J2.52
N3760 X-13.498 Y6.76 I9.478 J0.
N3770 G3 X-13.338 Y7.544 I-1.839 J.784
N3780 X-14.552 Y9.384 I-1.999 J0.
N3790 G1 X-16.392 Y10.169
N3800 X-12.58 Y8.425
N3810 G2 X-9.285 Y11.379 I7.8 J-5.384
N3820 X-8.809 Y11.5 I.476 J-.879
N3830 X-8.473 Y11.441 I0. J-1.
N3840 X-2.84 Y3.972 I-2.863 J-8.018
N3850 G1 X-1.321 Y3.277
N3860 X.663 Y3.03
N3870 G3 X.911 Y3.015 I.248 J1.984
N3880 X2.896 Y4.766 I0. J1.999
N3890 G2 X4.642 Y9.238 I9.697 J-1.21
N3900 X8.211 Y10.949 I3.569 J-2.867
N3910 X11.994 Y8.948 I0. J-4.578
N3920 X14.114 Y3.088 I-7.037 J-5.86
N3930 X13.658 Y.232 I-9.157 J0.
N3940 X12.708 Y-.456 I-.95 J.312
N3950 X11.783 Y.164 I0. J1.
N3960 G3 X8.601 Y3.487 I-5.836 J-2.402
N3970 X5.405 Y.189 I.86 J-4.031
N3980 G2 X4.421 Y-.634 I-.984 J.177
N3990 X3.489 Y.003 I0. J1.
N4000 X2.82 Y3.556 I9.104 J3.553
N4010 X2.896 Y4.766 I9.773 J0.
N4020 G3 X2.911 Y5.014 I-1.985 J.248
N4030 X1.159 Y6.999 I-2. J0.
N4040 G1 X-.826 Y7.247
N4050 X-3.079 Y5.5
N4060 G2 X-2.822 Y3.423 I-8.257 J-2.077
N4070 X-3.508 Y.075 I-8.514 J0.
N4080 X-4.427 Y-.531 I-.919 J.394
N4090 X-5.379 Y.16 I0. J1.
N4100 G3 X-6.971 Y2.482 I-4.719 J-1.529
N4110 G1 X-11.31 Y-.882
N4120 X-11.579 Y-2.864
N4130 G3 X-11.597 Y-3.132 I1.982 J-.268
N4140 X-9.865 Y-5.114 I2. J0.
N4150 X-1.09 Y-5.706 I8.775 J64.739
N4160 X.072 Y-5.696 I0. J65.331
N4170 X19.005 Y-3.558 I-15.63 J223.309
N4180 G2 X19.159 Y-3.546 I.154 J-.988
N4190 X20.159 Y-4.546 I0. J-1.
N4200 G1 Y-4.548
N4210 G2 X10.735 Y-20.3 I-17.945 J.041
N4220 X-.307 Y-23.429 I-11.042 J17.922
N4230 X-11.195 Y-20.394 I0. J21.051
N4240 X-20.91 Y-4.949 I7.419 J15.445
N4250 X-20.88 Y-3.929 I17.134 J0.
N4260 X-19.882 Y-2.988 I.998 J-.059
N4270 X-19.599 Y-3.029 I0. J-1.
N4280 G3 X-9.865 Y-5.114 I18.509 J62.654
N4290 X-9.597 Y-5.132 I.268 J1.982
N4300 X-7.615 Y-3.401 I0. J2.
N4310 G1 X-7.346 Y-1.419
N4320 G0 Z23.
N4330 Z25.
N4340 X21.231 Y11.849
N4350 Z10.
N4360 G1 Z1. F200.
N4370 G3 X20.468 Y12. Z.959 I-.763 J-1.849
N4380 X18.468 Y10. Z.794 I0. J-2.
N4390 X20.468 Y8. Z.629 I2. J0.
N4400 X22.468 Y10. Z.465 I0. J2.
N4410 X21.231 Y11.849 Z.341 I-2. J0.
N4420 X20.468 Y12. Z.3 I-.763 J-1.849
N4430 X18.468 Y10. Z.136 I0. J-2.
N4440 X20.468 Y8. Z-.029 I2. J0.
N4450 X22.468 Y10. Z-.193 I0. J2.
N4460 X21.231 Y11.849 Z-.317 I-2. J0.
N4470 X20.468 Y12. Z-.358 I-.763 J-1.849
N4480 X18.468 Y10. Z-.523 I0. J-2.
N4490 X20.468 Y8. Z-.688 I2. J0.
N4500 X22.468 Y10. Z-.852 I0. J2.
N4510 X21.231 Y11.849 Z-.976 I-2. J0.
N4520 X20.468 Y12. Z-1.017 I-.763 J-1.849
N4530 X18.468 Y10. Z-1.181 I0. J-2.
N4540 X20.468 Y8. Z-1.346 I2. J0.
N4550 X22.468 Y10. Z-1.51 I0. J2.
N4560 X21.231 Y11.849 Z-1.634 I-2. J0.
N4570 X20.468 Y12. Z-1.675 I-.763 J-1.849
N4580 X18.468 Y10. Z-1.84 I0. J-2.
N4590 X20.38 Y8.002 Z-2. I2. J0.
N4600 G1 X20.321 Y6.671 F300.
N4610 X20.369
N4620 G3 X22.485 Y7.624 I-.024 J2.881
N4630 G1 X18.205
N4640 G2 X17.635 Y8.576 I2.14 J1.928
N4650 G1 X23.109
N4660 G3 X23.536 Y9.528 I-7.037 J3.731
N4670 G1 X17.465
N4680 Y9.552
N4690 G2 X17.472 Y9.765 I2.88 J0.
N4700 X17.39 Y10.48 I20.809 J2.77
N4710 G1 X23.824
N4720 G3 X23.988 Y11.432 I-7.752 J1.827
N4730 G1 X17.318
N4740 G2 X17.289 Y12.385 I20.963 J1.103
N4750 G1 X24.036
N4760 G3 X23.97 Y13.337 I-7.964 J-.078
N4770 G1 X17.304
N4780 G2 X17.362 Y14.289 I20.977 J-.802
N4790 G1 X23.786
N4800 G3 X23.583 Y14.957 I-7.714 J-1.982
N4810 X23.551 Y15.241 I-20.878 J-2.155
N4820 G1 X17.464
N4830 G2 X17.61 Y16.193 I20.817 J-2.706
N4840 G1 X23.418
N4850 G3 X23.239 Y17.146 I-20.713 J-3.391
N4860 G1 X17.801
N4870 G2 X18.039 Y18.098 I20.48 J-4.611
N4880 G1 X23.014
N4890 G3 X22.742 Y19.05 I-20.309 J-5.296
N4900 G1 X18.325
N4910 G2 X18.662 Y20.002 I19.956 J-6.515
N4920 G1 X22.42
N4930 G3 X22.046 Y20.954 I-19.715 J-7.2
N4940 G1 X19.051
N4950 G2 X19.497 Y21.907 I19.23 J-8.419
N4960 G1 X21.616
N4970 G3 X21.127 Y22.859 I-18.911 J-9.105
N4980 G1 X20.003
N4990 G2 X20.575 Y23.811 I18.278 J-10.324
N5000 G1 X21.745 Y18.579
N5010 X19.8 Y19.048
N5020 G3 X19.332 Y19.104 I-.468 J-1.945
N5030 X17.387 Y17.572 I0. J-2.001
N5040 X16.788 Y12.535 I20.894 J-5.037
N5050 X16.97 Y9.748 I21.493 J0.
N5060 X16.964 Y9.552 I3.375 J-.196
N5070 X20.345 Y6.171 I3.381 J0.
N5080 X23.176 Y7.705 I0. J3.381
N5090 X24.536 Y12.307 I-7.104 J4.602
N5100 X24.074 Y15.067 I-8.464 J0.
N5110 X20.581 Y24.727 I-21.369 J-2.265
N5120 X17.387 Y17.572 I17.7 J-12.192
N5130 G0 Z23.
N5140 Z25.
N5150 X-1.015 Y-10.93
N5160 Z10.
N5170 G1 Z-2. F200.
N5180 X-.806 F300.
N5190 X.638 Y-10.731
N5200 G2 X-.005 Y-10.742 I-1.311 J61.82
N5210 X-2.312 Y-10.794 I-2.307 J50.891
N5220 X-7.491 Y-10.53 I0. J50.943
N5230 G3 X-.91 Y-10.93 I6.581 J53.925
N5240 X-.321 Y-10.927 I0. J54.325
N5250 X14.71 Y-8.953 I-2.853 J79.93
N5260 X14.744 Y-8.793 I-66.101 J14.369
N5270 G1 X12.107 Y-9.504
N5280 X12.104 Y-9.505
N5290 X11.65
N5300 G2 X9.664 Y-9.875 I-12.323 J60.594
N5310 G1 X7.828 Y-10.217
N5320 X7.389
N5330 X-8.181 Y-10.946
N5340 G3 X-.91 Y-11.43 I7.271 J54.341
N5350 X-.309 Y-11.427 I0. J54.825
N5360 X15.13 Y-9.369 I-2.865 J80.43
N5370 X15.399 Y-8.102 I-66.521 J14.785
N5380 G2 X-.019 Y-10.242 I-16.072 J59.191
N5390 X-2.312 Y-10.294 I-2.293 J50.391
N5400 X-16.44 Y-8.275 I0. J50.443
N5410 G3 X-15.902 Y-9.341 I7.009 J2.87
N5420 X-8.181 Y-10.946 I14.992 J52.736
N5430 G0 Z23.
N5440 Z25.
N5450 X-21.085 Y-12.73
N5460 Z10.
N5470 G1 Z-2. F200.
N5480 X-22.707 Y-13.901 F300.
N5490 G3 X-23.537 Y-15.523 I1.171 J-1.622
N5500 X-23.158 Y-16.693 I2.001 J0.
N5510 X-.034 Y-28.521 I23.124 J16.689
N5520 X28.483 Y-.004 I0. J28.517
N5530 X27.335 Y8.007 I-28.517 J0.
N5540 G2 X24.604 Y4.101 I-10.68 J4.56
N5550 X19.859 Y1.729 I-4.745 J3.561
N5560 X15.231 Y3.949 I0. J5.933
N5570 X12.636 Y13.008 I14.517 J9.059
N5580 X16.191 Y23.449 I17.112 J0.
N5590 G3 X-.034 Y28.514 I-16.225 J-23.453
N5600 X-28.552 Y-.004 I0. J-28.518
N5610 X-23.158 Y-16.693 I28.518 J0.
N5620 X-21.536 Y-17.523 I1.622 J1.17
N5630 X-20.366 Y-17.144 I0. J2.
N5640 G1 X-18.744 Y-15.974
N5650 X-18.656 Y-13.445
N5660 G2 X-20.911 Y-4.949 I14.88 J8.496
N5670 X-20.88 Y-3.929 I17.135 J0.
N5680 X-19.882 Y-2.988 I.998 J-.059
N5690 X-19.599 Y-3.029 I0. J-1.
N5700 G3 X-18.306 Y-3.397 I18.509 J62.654
N5710 G1 X-17.962 Y6.489
N5720 X-16.122 Y5.705
N5730 G3 X-15.337 Y5.544 I.785 J1.839
N5740 X-13.498 Y6.76 I0. J2.
N5750 G2 X-9.285 Y11.379 I8.718 J-3.719
N5760 X-8.809 Y11.5 I.476 J-.879
N5770 X-8.473 Y11.441 I0. J-1.
N5780 X-2.822 Y3.423 I-2.863 J-8.018
N5790 X-3.508 Y.075 I-8.514 J0.
N5800 X-4.427 Y-.531 I-.919 J.394
N5810 X-5.379 Y.16 I0. J1.
N5820 G3 X-7.827 Y3.041 I-4.719 J-1.529
N5830 X-8.796 Y3.37 I-.969 J-1.263
N5840 X-9.701 Y3.088 I0. J-1.592
N5850 G2 X-12.208 Y.12 I-52.306 J41.628
N5860 X-12.953 Y-.213 I-.745 J.667
N5870 X-13.917 Y.521 I0. J1.
N5880 X-14.258 Y3.041 I9.137 J2.52
N5890 X-13.498 Y6.76 I9.478 J0.
N5900 G3 X-13.338 Y7.544 I-1.839 J.784
N5910 X-14.552 Y9.384 I-1.999 J0.
N5920 G1 X-16.392 Y10.169
N5930 X-12.58 Y8.425
N5940 G2 X-9.285 Y11.379 I7.8 J-5.384
N5950 X-8.809 Y11.5 I.476 J-.879
N5960 X-8.473 Y11.441 I0. J-1.
N5970 X-2.84 Y3.972 I-2.863 J-8.018
N5980 G1 X-1.321 Y3.277
N5990 X.663 Y3.03
N6000 G3 X.911 Y3.015 I.248 J1.984
N6010 X2.896 Y4.766 I0. J1.999
N6020 G2 X4.642 Y9.238 I9.697 J-1.21
N6030 X8.211 Y10.949 I3.569 J-2.867
N6040 X11.994 Y8.948 I0. J-4.578
N6050 X14.114 Y3.088 I-7.037 J-5.86
N6060 X13.658 Y.232 I-9.157 J0.
N6070 X12.708 Y-.456 I-.95 J.312
N6080 X11.783 Y.164 I0. J1.
N6090 G3 X8.601 Y3.487 I-5.836 J-2.402
N6100 X5.405 Y.189 I.86 J-4.031
N6110 G2 X4.421 Y-.634 I-.984 J.177
N6120 X3.489 Y.003 I0. J1.
N6130 X2.82 Y3.556 I9.104 J3.553
N6140 X2.896 Y4.766 I9.773 J0.
N6150 G3 X2.911 Y5.014 I-1.985 J.248
N6160 X1.159 Y6.999 I-2. J0.
N6170 G1 X-.826 Y7.247
N6180 X-3.079 Y5.5
N6190 G2 X-2.822 Y3.423 I-8.257 J-2.077
N6200 X-3.508 Y.075 I-8.514 J0.
N6210 X-4.427 Y-.531 I-.919 J.394
N6220 X-5.379 Y.16 I0. J1.
N6230 G3 X-6.971 Y2.482 I-4.719 J-1.529
N6240 G1 X-11.31 Y-.882
N6250 X-11.579 Y-2.864
N6260 G3 X-11.597 Y-3.132 I1.982 J-.268
N6270 X-9.865 Y-5.114 I2. J0.
N6280 X-1.09 Y-5.706 I8.775 J64.739
N6290 X.072 Y-5.696 I0. J65.331
N6300 X19.005 Y-3.558 I-15.63 J223.309
N6310 G2 X19.159 Y-3.546 I.154 J-.988
N6320 X20.159 Y-4.546 I0. J-1.
N6330 G1 Y-4.548
N6340 G2 X10.735 Y-20.3 I-17.945 J.041
N6350 X-.307 Y-23.429 I-11.042 J17.922
N6360 X-11.195 Y-20.394 I0. J21.051
N6370 X-20.91 Y-4.949 I7.419 J15.445
N6380 X-20.88 Y-3.929 I17.134 J0.
N6390 X-19.882 Y-2.988 I.998 J-.059
N6400 X-19.599 Y-3.029 I0. J-1.
N6410 G3 X-9.865 Y-5.114 I18.509 J62.654
N6420 X-9.597 Y-5.132 I.268 J1.982
N6430 X-7.615 Y-3.401 I0. J2.
N6440 G1 X-7.346 Y-1.419
N6450 G0 Z23.
N6460 Z25.
N6470 X16.97 Y9.748
N6480 Z10.
N6490 G1 Z-2. F200.
N6500 G3 X16.964 Y9.552 I3.375 J-.196 F300.
N6510 X20.345 Y6.171 I3.381 J0.
N6520 X23.176 Y7.705 I0. J3.381
N6530 X24.536 Y12.307 I-7.104 J4.602
N6540 X24.074 Y15.067 I-8.464 J0.
N6550 X20.581 Y24.727 I-21.369 J-2.265
N6560 X17.387 Y17.572 I17.7 J-12.192
N6570 X17.331 Y17.103 I1.945 J-.469
N6580 X18.863 Y15.159 I2.001 J0.
N6590 G1 X20.807 Y14.69
N6600 G0 Z23.
N6610 Z25.
N6620 X-.309 Y-11.427
N6630 Z10.
N6640 G1 Z-2. F200.
N6650 G3 X15.13 Y-9.369 I-2.865 J80.43 F300.
N6660 X15.399 Y-8.102 I-66.521 J14.785
N6670 G2 X-.019 Y-10.242 I-16.072 J59.191
N6680 X-2.312 Y-10.294 I-2.293 J50.391
N6690 X-16.44 Y-8.275 I0. J50.443
N6700 G3 X-15.902 Y-9.341 I7.009 J2.87
N6710 X-8.181 Y-10.946 I14.992 J52.736
N6720 X-7.916 Y-10.964 I.265 J1.982
N6730 X-6.764 Y-10.599 I0. J2.
N6740 G0 Z25.
N6750 M5
N6780 M30
%
